www/assets/icons/noise_aware.svg

<svg width="24" height="24" viewBox="0 0 24 24" xmlns="http://www.w3.org/2000/svg" fill='currentColor'><path d="M16 15H14C14 15.55 13.55 16 13 16C12.57 16 12.19 15.73 12.05 15.32C11.9 14.88 11.65 14.24 11.12 13.71L9.75996 12.35C9.27996 11.87 8.99996 11.19 8.99996 10.5C8.99996 9.12 10.12 8 11.5 8C12.71 8 13.72 8.86 13.95 10H15.97C15.72 7.75 13.81 6 11.5 6C9.01996 6 6.99996 8.02 6.99996 10.5C6.99996 11.72 7.48996 12.91 8.34996 13.77L9.70996 15.13C9.87996 15.3 10.02 15.57 10.15 15.95C10.56 17.17 11.71 18 13 18C14.65 18 16 16.65 16 15Z"/><path d="M13.5 14C14.3284 14 15 13.3284 15 12.5C15 11.6716 14.3284 11 13.5 11C12.6715 11 12 11.6716 12 12.5C12 13.3284 12.6715 14 13.5 14Z"/><path d="M3.59996 6.58L5.17996 7.84C5.52996 7.27 5.94996 6.74 6.41996 6.27L4.84996 5.02C4.37996 5.49 3.96996 6.02 3.59996 6.58Z"/><path d="M9.45996 4.42L8.58996 2.61C7.95996 2.84 7.34996 3.13 6.78996 3.48L7.65996 5.29C8.21996 4.93 8.81996 4.64 9.45996 4.42Z"/><path d="M4.48996 9.26L2.52996 8.81C2.31996 9.44 2.16996 10.09 2.08996 10.76L4.04996 11.21C4.10996 10.53 4.26996 9.88 4.48996 9.26Z"/><path d="M20.4 6.58C20.04 6.02 19.62 5.49 19.15 5.02L17.57 6.28C18.05 6.75 18.46 7.27 18.81 7.85L20.4 6.58Z"/><path d="M4.03996 12.79L2.07996 13.24C2.15996 13.91 2.30996 14.57 2.51996 15.19L4.48996 14.74C4.26996 14.12 4.10996 13.47 4.03996 12.79Z"/><path d="M17.21 3.48C16.64 3.13 16.04 2.84 15.41 2.61L14.54 4.42C15.18 4.64 15.78 4.93 16.34 5.29L17.21 3.48Z"/><path d="M13 4.07V2.05C12.67 2.02 12.34 2 12 2C11.66 2 11.33 2.02 11 2.05V4.07C11.33 4.03 11.66 4 12 4C12.34 4 12.67 4.03 13 4.07Z"/><path d="M11 19.93V21.95C11.33 21.98 11.66 22 12 22C12.34 22 12.67 21.98 13 21.95V19.93C12.67 19.97 12.34 20 12 20C11.66 20 11.33 19.97 11 19.93Z"/><path d="M19.51 14.74L21.48 15.19C21.69 14.56 21.84 13.91 21.92 13.24L19.96 12.79C19.89 13.47 19.73 14.12 19.51 14.74Z"/><path d="M19.96 11.21L21.92 10.76C21.84 10.09 21.69 9.43 21.48 8.81L19.51 9.26C19.73 9.88 19.89 10.53 19.96 11.21Z"/><path d="M17.58 17.73L19.16 18.99C19.63 18.51 20.04 17.99 20.41 17.43L18.83 16.17C18.47 16.73 18.05 17.26 17.58 17.73Z"/><path d="M6.78996 20.52C7.35996 20.87 7.95996 21.16 8.58996 21.39L9.45996 19.58C8.81996 19.36 8.21996 19.07 7.65996 18.71L6.78996 20.52Z"/><path d="M14.54 19.58L15.41 21.39C16.04 21.16 16.65 20.87 17.21 20.52L16.34 18.71C15.78 19.07 15.18 19.36 14.54 19.58Z"/><path d="M3.59996 17.42C3.95996 17.98 4.37996 18.51 4.84996 18.98L6.42996 17.72C5.94996 17.25 5.53996 16.73 5.18996 16.15L3.59996 17.42Z"/></svg>

<svg xmlns="http://www.w3.org/2000/svg" width="24" height="24" viewBox="0 0 24 24" fill='currentColor'><path d="M16 15h-2a1.003 1.003 0 0 1-1.95.32c-.15-.44-.4-1.08-.93-1.61l-1.36-1.36C9.28 11.87 9 11.19 9 10.5a2.5 2.5 0 0 1 4.95-.5h2.02c-.25-2.25-2.16-4-4.47-4C9.02 6 7 8.02 7 10.5c0 1.22.49 2.41 1.35 3.27l1.36 1.36c.17.17.31.44.44.82A3.01 3.01 0 0 0 13 18c1.65 0 3-1.35 3-3"/><path d="M13.5 14a1.5 1.5 0 1 0 0-3 1.5 1.5 0 0 0 0 3M3.6 6.58l1.58 1.26c.35-.57.77-1.1 1.24-1.57L4.85 5.02c-.47.47-.88 1-1.25 1.56m5.86-2.16-.87-1.81c-.63.23-1.24.52-1.8.87l.87 1.81q.84-.54 1.8-.87M4.49 9.26l-1.96-.45c-.21.63-.36 1.28-.44 1.95l1.96.45a8 8 0 0 1 .44-1.95M20.4 6.58a9.4 9.4 0 0 0-1.25-1.56l-1.58 1.26c.48.47.89.99 1.24 1.57zM4.04 12.79l-1.96.45c.08.67.23 1.33.44 1.95l1.97-.45c-.22-.62-.38-1.27-.45-1.95m13.17-9.31q-.855-.525-1.8-.87l-.87 1.81q.96.33 1.8.87zM13 4.07V2.05c-.33-.03-.66-.05-1-.05s-.67.02-1 .05v2.02c.33-.04.66-.07 1-.07s.67.03 1 .07m-2 15.86v2.02c.33.03.66.05 1 .05s.67-.02 1-.05v-2.02c-.33.04-.66.07-1 .07s-.67-.03-1-.07m8.51-5.19 1.97.45c.21-.63.36-1.28.44-1.95l-1.96-.45c-.07.68-.23 1.33-.45 1.95m.45-3.53 1.96-.45a9.7 9.7 0 0 0-.44-1.95l-1.97.45c.22.62.38 1.27.45 1.95m-2.38 6.52 1.58 1.26c.47-.48.88-1 1.25-1.56l-1.58-1.26a9.4 9.4 0 0 1-1.25 1.56M6.79 20.52q.855.525 1.8.87l.87-1.81q-.96-.33-1.8-.87zm7.75-.94.87 1.81c.63-.23 1.24-.52 1.8-.87l-.87-1.81q-.84.54-1.8.87M3.6 17.42a9.4 9.4 0 0 0 1.25 1.56l1.58-1.26a8 8 0 0 1-1.24-1.57z"/></svg>
